X:1
T:Lord Ingram and Child Wyet
M:4/4
L:1/4
K:C
 C| E G A c| E G c2| G- F E c| GG/2-E/2 D C| C C cc/2-d/2| ed/2-c/2 AG/2-A/2|\
 c2 G2| AG/2-E/2 D- C|
